storage/app/icons/phosphoricons/bold/clipboard-bold.svg

<svg xmlns="http://www.w3.org/2000/svg" viewBox="0 0 256 256" fill="currentColor"><path d="M200,28H165.47a51.88,51.88,0,0,0-74.94,0H56A20,20,0,0,0,36,48V216a20,20,0,0,0,20,20H200a20,20,0,0,0,20-20V48A20,20,0,0,0,200,28ZM155.71,60H100.29a28,28,0,0,1,55.42,0ZM196,212H60V52H77.41A52.13,52.13,0,0,0,76,64v8A12,12,0,0,0,88,84h80a12,12,0,0,0,12-12V64a52.13,52.13,0,0,0-1.41-12H196Z"/></svg>

<svg xmlns="http://www.w3.org/2000/svg" fill="currentColor" viewBox="0 0 256 256"><path d="M200 28h-34.53a51.88 51.88 0 0 0-74.94 0H56a20 20 0 0 0-20 20v168a20 20 0 0 0 20 20h144a20 20 0 0 0 20-20V48a20 20 0 0 0-20-20m-44.29 32h-55.42a28 28 0 0 1 55.42 0M196 212H60V52h17.41A52 52 0 0 0 76 64v8a12 12 0 0 0 12 12h80a12 12 0 0 0 12-12v-8a52 52 0 0 0-1.41-12H196Z"/></svg>
